public/avatar/hat/65.svg

<svg xmlns:xlink="http://www.w3.org/1999/xlink" height="92.9" width="100.7" xmlns="http://www.w3.org/2000/svg"><g transform="translate(38.65 49.75)"><use height="21.1" transform="translate(-16.75 -3.65)" width="33.4" xlink:href="#a"/><use height="4" transform="translate(-16.95 14.95)" width="4" xlink:href="#b"/><use height="4" transform="translate(12.85 14.65)" width="4" xlink:href="#b"/><use height="18" transform="translate(-.45 -11.9)" width="23.55" xlink:href="#c"/></g><defs><g id="a"><path d="m-1.4 1.65-.3 2.95q-.3 1.8-.85 3.15-1 2-2.1 3.5l-2.6 1.4q-1.8.75-3.8.85-1.55.1-2.6-.4.1-1.15.7-2.3.4-.8.3-1.15-.7.35-1.2.9l-.8.95-.4-1-.55-3.5q1.4-4.55 5.35-7.7l2-1.3 4.1-.25q-.9 2.15-2.25 4.2l-.35.95q1.15-.5 2.15-1.35l.7-.55q.5 1.7-.3 3.75l-.2 1.5L-2.95 4l.8-1.3.75-1.05m-7.8 8.95q2.45-1 2.8-3.35l-.05-.2q-.25-.45-.8-.5l-.45.15-.2.1-2.55 2.8q-.05.95.95 1.1l.3-.1M-9.65 6l-.05-.2q-.25-.45-.8-.5-1.15.2-1.7 1.3l.05.4.45.55q1.9.2 2.05-1.55" fill="#fc0" fill-rule="evenodd" transform="translate(16.75 3.65)"/><path d="m-8.25-2 2.85-1q2.8-.5 5.85.75 3.45-1.3 6.9-.1Q9.9-1.85 11.6 0q2.25 2 3.4 5.15 1.9 5.15.65 10.55l-.8.95-2.1-5.5q-.9-2.4-2.35-4.6-1.55-2.35-4-3.6Q3.8 1.5 1.05.65l.1 2.95q.05 2-.45 3.85L-.65 10.7l-1.2 1.9-.4-.3 1.15-2.75q.45-1.8.55-3.8.1-2.15-.85-4.15v.05l-.75 1.05-.8 1.3-1.45 2.25.2-1.5q.8-2.05.3-3.75l-.7.55q-1 .85-2.15 1.35l.35-.95q1.35-2.05 2.25-4.2l-4.1.25m-5.4 15.1q-.25 1.3-.75 2.1-.1.85-.55 1.75-1.8-3.75-1.1-8L-15.6 7l.55 3.5.4 1 .8-.95q.5-.55 1.2-.9.1.35-.3 1.15-.6 1.15-.7 2.3" fill="#d8a701" fill-rule="evenodd" transform="translate(16.75 3.65)"/><path d="M-9.65 6q-.15 1.75-2.05 1.55l-.45-.55-.05-.4q.55-1.1 1.7-1.3.55.05.8.5l.05.2m.45 4.6-.3.1q-1-.15-.95-1.1l2.55-2.8.2-.1.45-.15q.55.05.8.5l.05.2q-.35 2.35-2.8 3.35" fill="#fff" fill-rule="evenodd" transform="translate(16.75 3.65)"/><path d="m-1.85 12.6-.8 1.2q-.2-.6.4-1.5l.4.3" fill-rule="evenodd" transform="translate(16.75 3.65)"/><path d="m-8.25-2 2.85-1q2.8-.5 5.85.75 3.45-1.3 6.9-.1Q9.9-1.85 11.6 0q2.25 2 3.4 5.15 1.9 5.15.65 10.55l-.8.95-2.1-5.5q-.9-2.4-2.35-4.6-1.55-2.35-4-3.6Q3.8 1.5 1.05.65l.1 2.95q.05 2-.45 3.85L-.65 10.7l-1.2 1.9m-.4-.3 1.15-2.75q.45-1.8.55-3.8.1-2.15-.85-4.15v.05l-.3 2.95q-.3 1.8-.85 3.15-1 2-2.1 3.5l-2.6 1.4q-1.8.75-3.8.85-1.55.1-2.6-.4-.25 1.3-.75 2.1-.1.85-.55 1.75-1.8-3.75-1.1-8L-15.6 7q1.4-4.55 5.35-7.7l2-1.3Z" fill="none" stroke="#8e7413" stroke-linecap="round" stroke-linejoin="round" transform="translate(16.75 3.65)"/></g><g id="d"><path d="M.8 1.55Q.2.8 1.15.5q1.15.5.1 1.15Q1 1.8.8 1.55" fill="#ffcc4c" fill-rule="evenodd" transform="translate(.5 .5)"/><path d="m2.55 2.55-.25.2-.8.25Q.9 3 .45 2.55 0 2.1 0 1.5 0 .9.45.45.9 0 1.5 0l.8.25.25.2Q3 .9 3 1.5q0 .6-.45 1.05m-1.75-1q.2.25.45.1Q2.3 1 1.15.5.2.8.8 1.55" fill="#cca33d" fill-rule="evenodd" transform="translate(.5 .5)"/><path d="m2.55 2.55-.25.2-.8.25Q.9 3 .45 2.55 0 2.1 0 1.5 0 .9.45.45.9 0 1.5 0l.8.25.25.2Q3 .9 3 1.5q0 .6-.45 1.05Z" fill="none" stroke="#997a2e" stroke-linecap="round" stroke-linejoin="round" transform="translate(.5 .5)"/></g><g id="c"><path d="m8.55-6.2-.8-.5L5.6-2.8l1 .5 1.95-3.9M.7-1.25q-1.8-5.8 1.45-9.5-.3 2 .15 3.75l.25.75q1.9-3.45 5.4-5.15l.6 3.25 1.4-1.05q2.3-1.4 4.9-1.5L14-8.25l3.2.1 2.35 1.25-2.35 2.4 2.65 2.35L21.2-.4l-1.15-.55q-3-.8-5.7 1-1.45.9-.9-.3.7-1.55 1.8-2.75-1.6.65-3.1 1.5-1.65 1-2.4 2.55L7.4.85Q3.1.9.7-1.25m7.85.05.5.15 2-2.45 2.35-.85-.65-1.6-4.7 4.2.5.55" fill="#fc0" fill-rule="evenodd" transform="translate(.45 11.9)"/><path d="M8.55-6.2 6.6-2.3l-1-.5 2.15-3.9.8.5m0 5-.5-.55 4.7-4.2.65 1.6-2.35.85-2 2.45-.5-.15" fill="#fff" fill-rule="evenodd" transform="translate(.45 11.9)"/><path d="M9.75 1.05q.75-1.55 2.4-2.55 1.5-.85 3.1-1.5-1.1 1.2-1.8 2.75-.55 1.2.9.3 2.7-1.8 5.7-1l1.15.55q1.25 2.1 1.4 4.65l-1.3-.85q-2-1.4-4.35-2.05 1.45 1.15 2.5 2.45l1.25 1.8-3.85-.35Q15.15 3.4 12.6 2.9q-.65-1.45-2.85-1.85" fill="#d8a701" fill-rule="evenodd" transform="translate(.45 11.9)"/><path d="m21.2-.4-1.35-1.75L17.2-4.5l2.35-2.4-2.35-1.25-3.2-.1.85-2.45q-2.6.1-4.9 1.5l-1.4 1.05-.6-3.25q-3.5 1.7-5.4 5.15L2.3-7q-.45-1.75-.15-3.75Q-1.1-7.05.7-1.25m20.5.85q1.25 2.1 1.4 4.65l-1.3-.85q-2-1.4-4.35-2.05 1.45 1.15 2.5 2.45l1.25 1.8-3.85-.35Q15.15 3.4 12.6 2.9" fill="none" stroke="#8e7413" stroke-linecap="round" stroke-linejoin="round" transform="translate(.45 11.9)"/></g><use height="4" width="4" xlink:href="#d" id="b"/></defs></svg>

<?xml version="1.0" encoding="UTF-8" standalone="no"?>
<svg xmlns:xlink="http://www.w3.org/1999/xlink" height="92.9px" width="100.7px" xmlns="http://www.w3.org/2000/svg">
  <g transform="matrix(1.0, 0.0, 0.0, 1.0, 38.65, 49.75)">
    <use height="21.1" transform="matrix(1.0, 0.0, 0.0, 1.0, -16.75, -3.65)" width="33.4" xlink:href="#shape0"/>
    <use height="4.0" transform="matrix(1.0, 0.0, 0.0, 1.0, -16.95, 14.95)" width="4.0" xlink:href="#sprite0"/>
    <use height="4.0" transform="matrix(1.0, 0.0, 0.0, 1.0, 12.85, 14.65)" width="4.0" xlink:href="#sprite0"/>
    <use height="18.0" transform="matrix(1.0, 0.0, 0.0, 1.0, -0.45, -11.9)" width="23.55" xlink:href="#shape2"/>
  </g>
  <defs>
    <g id="shape0" transform="matrix(1.0, 0.0, 0.0, 1.0, 16.75, 3.65)">
      <path d="M-1.4 1.65 L-1.7 4.6 Q-2.0 6.4 -2.55 7.75 -3.55 9.75 -4.65 11.25 L-7.25 12.65 Q-9.05 13.4 -11.05 13.5 -12.6 13.6 -13.65 13.1 -13.55 11.95 -12.95 10.8 -12.55 10.0 -12.65 9.65 -13.35 10.0 -13.85 10.55 L-14.65 11.5 -15.05 10.5 -15.6 7.0 Q-14.2 2.45 -10.25 -0.7 L-8.25 -2.0 -4.15 -2.25 Q-5.05 -0.1 -6.4 1.95 L-6.75 2.9 Q-5.6 2.4 -4.6 1.55 L-3.9 1.0 Q-3.4 2.7 -4.2 4.75 L-4.4 6.25 -2.95 4.0 -2.15 2.7 -1.4 1.65 M-9.2 10.6 Q-6.75 9.6 -6.4 7.25 L-6.45 7.05 Q-6.7 6.6 -7.25 6.55 L-7.7 6.7 -7.9 6.8 -10.45 9.6 Q-10.5 10.55 -9.5 10.7 L-9.2 10.6 M-9.65 6.0 L-9.7 5.8 Q-9.95 5.35 -10.5 5.3 -11.65 5.5 -12.2 6.6 L-12.15 7.0 -11.7 7.55 Q-9.8 7.75 -9.65 6.0" fill="#ffcc00" fill-rule="evenodd" stroke="none"/>
      <path d="M-8.25 -2.0 L-5.4 -3.0 Q-2.6 -3.5 0.45 -2.25 3.9 -3.55 7.35 -2.35 9.9 -1.85 11.6 0.0 13.85 2.0 15.0 5.15 16.9 10.3 15.65 15.7 L14.85 16.65 12.75 11.15 Q11.85 8.75 10.4 6.55 8.85 4.2 6.4 2.95 3.8 1.5 1.05 0.65 L1.15 3.6 Q1.2 5.6 0.7 7.45 L-0.65 10.7 -1.85 12.6 -2.25 12.3 -1.1 9.55 Q-0.65 7.75 -0.55 5.75 -0.45 3.6 -1.4 1.6 L-1.4 1.65 -2.15 2.7 -2.95 4.0 -4.4 6.25 -4.2 4.75 Q-3.4 2.7 -3.9 1.0 L-4.6 1.55 Q-5.6 2.4 -6.75 2.9 L-6.4 1.95 Q-5.05 -0.1 -4.15 -2.25 L-8.25 -2.0 M-13.65 13.1 Q-13.9 14.4 -14.4 15.2 -14.5 16.05 -14.95 16.95 -16.75 13.2 -16.05 8.95 L-15.6 7.0 -15.05 10.5 -14.65 11.5 -13.85 10.55 Q-13.35 10.0 -12.65 9.65 -12.55 10.0 -12.95 10.8 -13.55 11.95 -13.65 13.1" fill="#d8a701" fill-rule="evenodd" stroke="none"/>
      <path d="M-9.65 6.0 Q-9.8 7.75 -11.7 7.55 L-12.15 7.0 -12.2 6.6 Q-11.65 5.5 -10.5 5.3 -9.95 5.35 -9.7 5.8 L-9.65 6.0 M-9.2 10.6 L-9.5 10.7 Q-10.5 10.55 -10.45 9.6 L-7.9 6.8 -7.7 6.7 -7.25 6.55 Q-6.7 6.6 -6.45 7.05 L-6.4 7.25 Q-6.75 9.6 -9.2 10.6" fill="#ffffff" fill-rule="evenodd" stroke="none"/>
      <path d="M-1.85 12.6 L-2.65 13.8 Q-2.85 13.2 -2.25 12.3 L-1.85 12.6" fill="#000000" fill-rule="evenodd" stroke="none"/>
      <path d="M-8.25 -2.0 L-5.4 -3.0 Q-2.6 -3.5 0.45 -2.25 3.9 -3.55 7.35 -2.35 9.9 -1.85 11.6 0.0 13.85 2.0 15.0 5.15 16.9 10.3 15.65 15.7 L14.85 16.65 12.75 11.15 Q11.85 8.75 10.4 6.55 8.85 4.2 6.4 2.95 3.8 1.5 1.05 0.65 L1.15 3.6 Q1.2 5.6 0.7 7.45 L-0.65 10.7 -1.85 12.6 M-2.25 12.3 L-1.1 9.55 Q-0.65 7.75 -0.55 5.75 -0.45 3.6 -1.4 1.6 L-1.4 1.65 -1.7 4.6 Q-2.0 6.4 -2.55 7.75 -3.55 9.75 -4.65 11.25 L-7.25 12.65 Q-9.05 13.4 -11.05 13.5 -12.6 13.6 -13.65 13.1 -13.9 14.4 -14.4 15.2 -14.5 16.05 -14.95 16.95 -16.75 13.2 -16.05 8.95 L-15.6 7.0 Q-14.2 2.45 -10.25 -0.7 L-8.25 -2.0 Z" fill="none" stroke="#8e7413" stroke-linecap="round" stroke-linejoin="round" stroke-width="1.0"/>
    </g>
    <g id="sprite0" transform="matrix(1.0, 0.0, 0.0, 1.0, 0.5, 0.5)">
      <use height="4.0" transform="matrix(1.0, 0.0, 0.0, 1.0, -0.5, -0.5)" width="4.0" xlink:href="#shape1"/>
    </g>
    <g id="shape1" transform="matrix(1.0, 0.0, 0.0, 1.0, 0.5, 0.5)">
      <path d="M0.8 1.55 Q0.2 0.8 1.15 0.5 2.3 1.0 1.25 1.65 1.0 1.8 0.8 1.55" fill="#ffcc4c" fill-rule="evenodd" stroke="none"/>
      <path d="M2.55 2.55 L2.3 2.75 1.5 3.0 Q0.9 3.0 0.45 2.55 0.0 2.1 0.0 1.5 0.0 0.9 0.45 0.45 0.9 0.0 1.5 0.0 L2.3 0.25 2.55 0.45 Q3.0 0.9 3.0 1.5 3.0 2.1 2.55 2.55 M0.8 1.55 Q1.0 1.8 1.25 1.65 2.3 1.0 1.15 0.5 0.2 0.8 0.8 1.55" fill="#cca33d" fill-rule="evenodd" stroke="none"/>
      <path d="M2.55 2.55 L2.3 2.75 1.5 3.0 Q0.9 3.0 0.45 2.55 0.0 2.1 0.0 1.5 0.0 0.9 0.45 0.45 0.9 0.0 1.5 0.0 L2.3 0.25 2.55 0.45 Q3.0 0.9 3.0 1.5 3.0 2.1 2.55 2.55 Z" fill="none" stroke="#997a2e" stroke-linecap="round" stroke-linejoin="round" stroke-width="1.0"/>
    </g>
    <g id="shape2" transform="matrix(1.0, 0.0, 0.0, 1.0, 0.45, 11.9)">
      <path d="M8.55 -6.2 L7.75 -6.7 5.6 -2.8 6.6 -2.3 8.55 -6.2 M0.7 -1.25 Q-1.1 -7.05 2.15 -10.75 1.85 -8.75 2.3 -7.0 L2.55 -6.25 Q4.45 -9.7 7.95 -11.4 L8.55 -8.15 9.95 -9.2 Q12.25 -10.6 14.85 -10.7 L14.0 -8.25 17.2 -8.15 19.55 -6.9 17.2 -4.5 19.85 -2.15 21.2 -0.4 20.05 -0.95 Q17.05 -1.75 14.35 0.05 12.9 0.95 13.45 -0.25 14.15 -1.8 15.25 -3.0 13.65 -2.35 12.15 -1.5 10.5 -0.5 9.75 1.05 L7.4 0.85 Q3.1 0.9 0.7 -1.25 M8.55 -1.2 L9.05 -1.05 11.05 -3.5 13.4 -4.35 12.75 -5.95 8.05 -1.75 8.55 -1.2" fill="#ffcc00" fill-rule="evenodd" stroke="none"/>
      <path d="M8.55 -6.2 L6.6 -2.3 5.6 -2.8 7.75 -6.7 8.55 -6.2 M8.55 -1.2 L8.05 -1.75 12.75 -5.95 13.4 -4.35 11.05 -3.5 9.05 -1.05 8.55 -1.2" fill="#ffffff" fill-rule="evenodd" stroke="none"/>
      <path d="M9.75 1.05 Q10.5 -0.5 12.15 -1.5 13.65 -2.35 15.25 -3.0 14.15 -1.8 13.45 -0.25 12.9 0.95 14.35 0.05 17.05 -1.75 20.05 -0.95 L21.2 -0.4 Q22.45 1.7 22.6 4.25 L21.3 3.4 Q19.3 2.0 16.95 1.35 18.4 2.5 19.45 3.8 L20.7 5.6 16.85 5.25 Q15.15 3.4 12.6 2.9 11.95 1.45 9.75 1.05" fill="#d8a701" fill-rule="evenodd" stroke="none"/>
      <path d="M21.2 -0.4 L19.85 -2.15 17.2 -4.5 19.55 -6.9 17.2 -8.15 14.0 -8.25 14.85 -10.7 Q12.25 -10.6 9.95 -9.2 L8.55 -8.15 7.95 -11.4 Q4.45 -9.7 2.55 -6.25 L2.3 -7.0 Q1.85 -8.75 2.15 -10.75 -1.1 -7.05 0.7 -1.25 M21.2 -0.4 Q22.45 1.7 22.6 4.25 L21.3 3.4 Q19.3 2.0 16.95 1.35 18.4 2.5 19.45 3.8 L20.7 5.6 16.85 5.25 Q15.15 3.4 12.6 2.9" fill="none" stroke="#8e7413" stroke-linecap="round" stroke-linejoin="round" stroke-width="1.0"/>
    </g>
  </defs>
</svg>
